plugins/woocommerce/packages/woocommerce-admin/images/marketing/facebook.svg

<svg width="36" height="36" fill="none" xmlns="http://www.w3.org/2000/svg"><path fill-rule="evenodd" clip-rule="evenodd" d="M34 0H2C.8 0 0 .8 0 2v32c0 1 .8 2 2 2h17.2V22h-4.6v-5.4h4.6v-4c0-4.6 2.8-7.2 7-7.2 2 0 3.6.2 4.2.2v4.8h-2.8c-2.2 0-2.6 1-2.6 2.6v3.4h5.4l-.8 5.6H25v14h9c1 0 2-.8 2-2V2c0-1.2-.8-2-2-2z" fill="#3B5997"/></svg>

<svg width="36" height="36" viewBox="0 0 36 36" fill="none" xmlns="http://www.w3.org/2000/svg">
<path fill-rule="evenodd" clip-rule="evenodd" d="M34 0H2C0.8 0 0 0.8 0 2V34C0 35 0.8 36 2 36H19.2V22H14.6V16.6H19.2V12.6C19.2 8 22 5.4 26.2 5.4C28.2 5.4 29.8 5.6 30.4 5.6V10.4H27.6C25.4 10.4 25 11.4 25 13V16.4H30.4L29.6 22H25V36H34C35 36 36 35.2 36 34V2C36 0.8 35.2 0 34 0Z" fill="#3B5997"/>
</svg>
